!! Orlando di Lasso, "Ipsa te cogat pietas" 2-part polyphony, alla breve;
!! No. 3 from Laudate Pueri, 16th century, Tovey edition, p. 4
**kern	**kern
*M4/2	*M4/2
=1	=1
0r	1d
.	2d
.	2f
=2	=2
1r	1e
1G	2d
.	[2b-
=3	=3
2G	4b-]
.	4a
2B-	1g
1A	.
.	2f#
=4	=4
2G	0g
2.e-	.
4d	.
[2c	.
=5	=5
2c]	2r
2Bn	2g
1c	2g
.	2a
=6	=6
2r	1b-
2d	.
2d	2a
2e	[2cc
=7	=7
1f	4cc]
.	4b-
.	4a
.	4g
1d	4f
.	4g
.	4a
.	4f
=8	=8
2.G	4b-
.	4a
.	4g
4A	4f
4B-	2g
4c	.
[2d	2f
=9	=9
2d]	1e
2c#	.
1d	2r
.	2f
=10	=10
2r	2e
2B-	2d
2A	2r
2G	2b-
=11	=11
2r	2a
2e-	2g
2d	2r
2c	[2cc
=12	=12
1f	2cc]
.	1a
2.d	.
.	2f
4c	.
=13	=13
4B-	4g
4A	4a
4G	4b-
4A	4cc
4B-	2.dd
4c	.
4d	.
4e	8cc
.	8b-
=14	=14
2f	4a
.	4b-
2e-	2.cc
2.d	.
.	4b-
.	[2b-
8c	.
8B-	.
=15	=15
2c	2b-]
2c	2a
1B-	[1b-
=16	=16
2r	1b-]
2G	.
2B-	2r
2c	2g
=17	=17
2d	2b-
2c	2cc
2B-	2dd
2A	2cc
=18	=18
2G	2.b-
1g	.
.	8a
.	8g
.	2a
2f#	2a
=19	=19
1g	2g
.	2dd
2r	2b-
2d	2a
=20	=20
2B-	2g
2A	2a
2G	2b-
2A	2cc
=21	=21
2B-	2.dd
2G	.
.	8cc
.	8b-
2d	1a
2f	.
=22	=22
2e-	2r
2d	2f
1c	2g
.	2a
=23	=23
2G	2b-
4G	2g
4A	.
4B-	4d
4G	4e
4A	4f
4B-	4d
=24	=24
4c	4e
4A	4f
4B-	4g
4c	4e
4d	4f
4B-	4g
4c	4a
4d	4b-
=25	=25
4c	4a
4B-	4g
4B-	1g
8A	.
8G	.
2A	.
2A	2f#
=26	=26
0G;	0g;
==	==
*-	*-
